svgs/sharp-light/building-shield.svg

<svg xmlns="http://www.w3.org/2000/svg" viewBox="0 0 576 512"><!--! Font Awesome Pro 6.6.0 by @fontawesome - https://fontawesome.com License - https://fontawesome.com/license (Commercial License) Copyright 2024 Fonticons, Inc. --><path d="M32 32l320 0 0 187.8L384 207l0-175 0-32L352 0 32 0 0 0 0 32 0 480l0 32 32 0 96 0 32 0 64 0 32 0 96 0 8.2 0c-13.7-9.8-25.6-20.6-36.1-32L256 480l0-80 0-32-32 0-64 0-32 0 0 32 0 80-96 0L32 32zM301.6 240l18.4-7.4 0-8.6-16 0-64 0-16 0 0 16 0 64 0 16 16 0 16 0 0-23.8 0-.2 0-8 0-30.2 0-1.8c0-8.8 7.2-16 16-16l29.6 0zM160 480l0-80 64 0 0 80-64 0zM64 96l0 16 0 64 0 16 16 0 64 0 16 0 0-16 0-64 0-16-16 0L80 96 64 96zm32 32l32 0 0 32-32 0 0-32zM240 96l-16 0 0 16 0 64 0 16 16 0 64 0 16 0 0-16 0-64 0-16-16 0-64 0zm16 64l0-32 32 0 0 32-32 0zM64 224l0 16 0 64 0 16 16 0 64 0 16 0 0-16 0-64 0-16-16 0-64 0-16 0zm32 32l32 0 0 32-32 0 0-32zm447.9 45.6C542.1 367.4 508.8 437 448 470.3l0-205.8 95.9 37.1zm-223.8 0L416 264.5l0 205.8c-60.8-33.3-94.1-102.8-95.9-168.6zM432 512c96-32 144-130.2 144-216l0-16.2L432 224 288 279.8l0 16.2c0 85.8 48 184 144 216z"/></svg>

<svg xmlns="http://www.w3.org/2000/svg" viewBox="0 0 576 512"><!--! Font Awesome Pro 6.4.0 by @fontawesome - https://fontawesome.com License - https://fontawesome.com/license (Commercial License) Copyright 2023 Fonticons, Inc. --><path d="M32 32H352V219.8L384 207V32 0H352 32 0V32 480v32H32h96 32 64 32 96 8.2c-13.7-9.8-25.6-20.6-36.1-32H256V400 368H224 160 128v32 80H32V32zM301.6 240l18.4-7.4V224H304 240 224v16 64 16h16 16V296.2 296v-8V257.8 256c0-8.8 7.2-16 16-16h29.6zM160 480V400h64v80H160zM64 96v16 64 16H80h64 16V176 112 96H144 80 64zm32 32h32v32H96V128zM240 96H224v16 64 16h16 64 16V176 112 96H304 240zm16 64V128h32v32H256zM64 224v16 64 16H80h64 16V304 240 224H144 80 64zm32 32h32v32H96V256zm447.9 45.6C542.1 367.4 508.8 437 448 470.3V264.5l95.9 37.1zm-223.8 0L416 264.5V470.3c-60.8-33.3-94.1-102.8-95.9-168.6zM432 512c96-32 144-130.2 144-216V279.8L432 224 288 279.8V296c0 85.8 48 184 144 216z"/></svg>
